svg/chili_alert.svg

<svg xmlns="http://www.w3.org/2000/svg" viewBox="0 0 24 24"><path d="m9.25 7.5-1.52-.87C8.26 5.7 9.03 5 9.94 4.69 9.8 4.29 9.44 4 9 4V2c1.54 0 2.79 1.16 2.97 2.65.94.29 1.75 1.01 2.3 1.98l-1.52.87-1.75-1zm4.75.78L12.75 9 11 8 9.25 9 8 8.28c-.6.35-1 .99-1 1.72v1c0 9 8 11 8 11V10c0-.73-.4-1.37-1-1.72M17 7v6h2V7zm0 10h2v-2h-2z"/></svg>

<svg xmlns="http://www.w3.org/2000/svg" id="mdi-chili-alert" viewBox="0 0 24 24"><path d="M9.25 7.5L7.73 6.63C8.26 5.7 9.03 5 9.94 4.69C9.8 4.29 9.44 4 9 4V2C10.54 2 11.79 3.16 11.97 4.65C12.91 4.94 13.72 5.66 14.27 6.63L12.75 7.5L11 6.5L9.25 7.5M14 8.28L12.75 9L11 8L9.25 9L8 8.28C7.4 8.63 7 9.27 7 10V11C7 20 15 22 15 22V10C15 9.27 14.6 8.63 14 8.28M17 7V13H19V7H17M17 17H19V15H17V17Z" /></svg>
